components/Common/Svg/svgs/twilio.svg

<svg
  width="163"
  height="50"
  viewBox="0 0 163 50"
  fill="none"
  xmlns="http://www.w3.org/2000/svg"
>
  <path
    d="M23.472 18.8333C23.472 21.6667 21.19 24 18.419 24C15.648 24 13.366 21.6667 13.366 18.8333C13.366 16 15.648 13.6667 18.419 13.6667C21.19 13.6667 23.472 16 23.472 18.8333ZM18.419 26C15.648 26 13.366 28.3333 13.366 31.1667C13.366 34 15.648 36.3333 18.419 36.3333C21.19 36.3333 23.472 34 23.472 31.1667C23.472 28.3333 21.19 26 18.419 26ZM48.9 25C48.9 38.8333 37.979 50 24.45 50C10.921 50 0 38.8333 0 25C0 11.1667 10.921 0 24.45 0C37.979 0 48.9 11.1667 48.9 25ZM42.38 25C42.38 14.8333 34.393 6.66667 24.45 6.66667C14.507 6.66667 6.52 14.8333 6.52 25C6.52 35.1667 14.507 43.3333 24.45 43.3333C34.393 43.3333 42.38 35.1667 42.38 25ZM30.481 26C27.71 26 25.428 28.3333 25.428 31.1667C25.428 34 27.71 36.3333 30.481 36.3333C33.252 36.3333 35.534 34 35.534 31.1667C35.534 28.3333 33.252 26 30.481 26ZM30.481 13.6667C27.71 13.6667 25.428 16 25.428 18.8333C25.428 21.6667 27.71 24 30.481 24C33.252 24 35.534 21.6667 35.534 18.8333C35.534 16 33.252 13.6667 30.481 13.6667ZM114.589 9.83333C114.752 9.83333 114.915 10 115.078 10.1667V15.5C115.078 15.8333 114.752 16 114.589 16H105.95C105.624 16 105.461 15.6667 105.461 15.5V10.3333C105.461 10 105.787 9.83333 105.95 9.83333H114.589ZM114.426 17.3333H97.8C97.637 17.3333 97.311 17.5 97.311 17.8333L95.192 26.1667L95.029 26.6667L92.421 17.8333C92.421 17.6667 92.095 17.3333 91.932 17.3333H85.412C85.249 17.3333 84.923 17.5 84.923 17.8333L82.478 26.1667L82.315 26.6667L82.152 26.1667L81.174 22L80.196 17.8333C80.196 17.6667 79.87 17.3333 79.707 17.3333H66.667V10.1667C66.667 10 66.341 9.66667 66.015 9.83333L57.865 12.5C57.539 12.5 57.376 12.6667 57.376 13V17.5H55.257C55.094 17.5 54.768 17.6667 54.768 18V24.3333C54.768 24.5 54.931 24.8333 55.257 24.8333H57.376V32.6667C57.376 38.1667 60.31 40.6667 65.689 40.6667C67.971 40.6667 70.09 40.1667 71.557 39.3333V32.6667C71.557 32.3333 71.231 32.1667 71.068 32.3333C70.253 32.6667 69.438 32.8333 68.786 32.8333C67.319 32.8333 66.504 32.1667 66.504 30.5V24.8333H71.231C71.394 24.8333 71.72 24.6667 71.72 24.3333V19L77.914 40C77.914 40.1667 78.24 40.5 78.403 40.5H85.249C85.412 40.5 85.738 40.3333 85.738 40L88.672 30.6667L90.139 35.5L91.443 40C91.443 40.1667 91.769 40.5 91.932 40.5H98.778C98.941 40.5 99.267 40.3333 99.267 40L105.461 19V40C105.461 40.1667 105.624 40.5 105.95 40.5H114.263C114.426 40.5 114.752 40.3333 114.752 40V17.8333C114.752 17.6667 114.589 17.3333 114.426 17.3333ZM125.347 9.83333H117.034C116.871 9.83333 116.545 10 116.545 10.3333V39.8333C116.545 40 116.708 40.3333 117.034 40.3333H125.347C125.51 40.3333 125.836 40.1667 125.836 39.8333V10.1667C125.836 10 125.673 9.83333 125.347 9.83333ZM136.431 9.83333H127.792C127.629 9.83333 127.303 10 127.303 10.3333V15.5C127.303 15.6667 127.466 16 127.792 16H136.431C136.594 16 136.92 15.8333 136.92 15.5V10.1667C136.92 10 136.757 9.83333 136.431 9.83333ZM136.268 17.3333H127.955C127.792 17.3333 127.466 17.5 127.466 17.8333V39.6667C127.466 39.8333 127.629 40.1667 127.955 40.1667H136.268C136.431 40.1667 136.757 40 136.757 39.6667V17.8333C136.757 17.6667 136.594 17.3333 136.268 17.3333ZM162.511 28.6667C162.511 35 157.295 40.5 149.96 40.5C142.788 40.5 137.572 35 137.572 28.6667C137.572 22.3333 142.788 16.8333 150.123 16.8333C157.295 16.8333 162.511 22.3333 162.511 28.6667ZM153.709 28.8333C153.709 26.5 152.079 24.6667 150.123 24.8333C148.004 24.8333 146.537 26.6667 146.537 28.8333C146.537 31 148.167 32.8333 150.123 32.8333C152.242 32.8333 153.709 31 153.709 28.8333Z"
    fill="#6A6A6A"
  ></path>
</svg>

<svg width="163" height="50" viewBox="0 0 163 50" fill="none" xmlns="http://www.w3.org/2000/svg"><path d="M23.472 18.833c0 2.834-2.282 5.167-5.053 5.167s-5.053-2.333-5.053-5.167c0-2.833 2.282-5.166 5.053-5.166s5.053 2.333 5.053 5.166ZM18.419 26c-2.771 0-5.053 2.333-5.053 5.167 0 2.833 2.282 5.166 5.053 5.166s5.053-2.333 5.053-5.166c0-2.834-2.282-5.167-5.053-5.167ZM48.9 25c0 13.833-10.921 25-24.45 25S0 38.833 0 25 10.921 0 24.45 0 48.9 11.167 48.9 25Zm-6.52 0c0-10.167-7.987-18.333-17.93-18.333S6.52 14.833 6.52 25c0 10.167 7.987 18.333 17.93 18.333S42.38 35.167 42.38 25Zm-11.899 1c-2.771 0-5.053 2.333-5.053 5.167 0 2.833 2.282 5.166 5.053 5.166s5.053-2.333 5.053-5.166c0-2.834-2.282-5.167-5.053-5.167Zm0-12.333c-2.771 0-5.053 2.333-5.053 5.166 0 2.834 2.282 5.167 5.053 5.167s5.053-2.333 5.053-5.167c0-2.833-2.282-5.166-5.053-5.166Zm84.108-3.834c.163 0 .326.167.489.334V15.5c0 .333-.326.5-.489.5h-8.639c-.326 0-.489-.333-.489-.5v-5.167c0-.333.326-.5.489-.5h8.639Zm-.163 7.5H97.8c-.163 0-.489.167-.489.5l-2.119 8.334-.163.5-2.608-8.834c0-.166-.326-.5-.489-.5h-6.52c-.163 0-.489.167-.489.5l-2.445 8.334-.163.5-.163-.5L81.174 22l-.978-4.167c0-.166-.326-.5-.489-.5h-13.04v-7.166c0-.167-.326-.5-.652-.334l-8.15 2.667c-.326 0-.489.167-.489.5v4.5h-2.119c-.163 0-.489.167-.489.5v6.333c0 .167.163.5.489.5h2.119v7.834c0 5.5 2.934 8 8.313 8 2.282 0 4.401-.5 5.868-1.334v-6.666c0-.334-.326-.5-.489-.334-.815.334-1.63.5-2.282.5-1.467 0-2.282-.666-2.282-2.333v-5.667h4.727c.163 0 .489-.166.489-.5V19l6.194 21c0 .167.326.5.489.5h6.846c.163 0 .489-.167.489-.5l2.934-9.333 1.467 4.833 1.304 4.5c0 .167.326.5.489.5h6.846c.163 0 .489-.167.489-.5l6.194-21v21c0 .167.163.5.489.5h8.313c.163 0 .489-.167.489-.5V17.833c0-.166-.163-.5-.326-.5Zm10.921-7.5h-8.313c-.163 0-.489.167-.489.5v29.5c0 .167.163.5.489.5h8.313c.163 0 .489-.166.489-.5V10.167c0-.167-.163-.334-.489-.334Zm11.084 0h-8.639c-.163 0-.489.167-.489.5V15.5c0 .167.163.5.489.5h8.639c.163 0 .489-.167.489-.5v-5.333c0-.167-.163-.334-.489-.334Zm-.163 7.5h-8.313c-.163 0-.489.167-.489.5v21.834c0 .166.163.5.489.5h8.313c.163 0 .489-.167.489-.5V17.833c0-.166-.163-.5-.489-.5Zm26.243 11.334c0 6.333-5.216 11.833-12.551 11.833-7.172 0-12.388-5.5-12.388-11.833 0-6.334 5.216-11.834 12.551-11.834 7.172 0 12.388 5.5 12.388 11.834Zm-8.802.166c0-2.333-1.63-4.166-3.586-4-2.119 0-3.586 1.834-3.586 4 0 2.167 1.63 4 3.586 4 2.119 0 3.586-1.833 3.586-4Z" fill="#6A6A6A"/></svg>
